images_sukapura_svg/cmd/lc_shadowed.svg

<svg viewBox="0 0 24 24" xmlns="http://www.w3.org/2000/svg"><path d="m17.525171 17.797122h-7.046002l-1.4339229 4.202878h-3.0409059l6.6133528-17.9982076h2.843123l6.539184 17.9982076h-3.053267zm-6.180703-2.509366h5.327766l-2.608257-7.6887944h-.07417z" fill="#98989d"/><path d="m14.525172 15.797124h-7.0460016l-1.4339231 4.202878h-3.040906l6.6133524-17.9982077h2.8431233l6.539184 17.9982077h-3.053267zm-6.1807031-2.509366h5.3277661l-2.608257-7.6887945h-.07417z" fill="#4b4b4f"/></svg>

<?xml version="1.0" encoding="UTF-8" standalone="no"?>
<svg
   xmlns:dc="http://purl.org/dc/elements/1.1/"
   xmlns:cc="http://creativecommons.org/ns#"
   xmlns:rdf="http://www.w3.org/1999/02/22-rdf-syntax-ns#"
   xmlns:svg="http://www.w3.org/2000/svg"
   xmlns="http://www.w3.org/2000/svg"
   xmlns:sodipodi="http://sodipodi.sourceforge.net/DTD/sodipodi-0.dtd"
   xmlns:inkscape="http://www.inkscape.org/namespaces/inkscape"
   viewBox="0 0 24 24"
   version="1.1"
   id="svg12843"
   sodipodi:docname="lc_shadowed.svg"
   inkscape:version="0.92.3 (2405546, 2018-03-11)"
   inkscape:export-filename="D:\Rizmut\libreoffice-style-sukapura-master\images_sukapura\cmd\lc_shadowed.png"
   inkscape:export-xdpi="96"
   inkscape:export-ydpi="96">
  <metadata
     id="metadata12849">
    <rdf:RDF>
      <cc:Work
         rdf:about="">
        <dc:format>image/svg+xml</dc:format>
        <dc:type
           rdf:resource="http://purl.org/dc/dcmitype/StillImage" />
      </cc:Work>
    </rdf:RDF>
  </metadata>
  <defs
     id="defs12847" />
  <sodipodi:namedview
     pagecolor="#ffffff"
     bordercolor="#666666"
     borderopacity="1"
     objecttolerance="10"
     gridtolerance="10"
     guidetolerance="10"
     inkscape:pageopacity="0"
     inkscape:pageshadow="2"
     inkscape:window-width="1366"
     inkscape:window-height="716"
     id="namedview12845"
     showgrid="true"
     inkscape:zoom="16"
     inkscape:cx="13.807205"
     inkscape:cy="9.5018583"
     inkscape:window-x="-8"
     inkscape:window-y="-8"
     inkscape:window-maximized="1"
     inkscape:current-layer="svg12843">
    <inkscape:grid
       type="xygrid"
       id="grid13394" />
  </sodipodi:namedview>
  <g
     aria-label="A"
     style="font-style:normal;font-weight:normal;font-size:25.3161602px;line-height:1.25;font-family:sans-serif;letter-spacing:0px;word-spacing:0px;fill:#98989d;fill-opacity:1;stroke:none;stroke-width:0.63290399"
     id="text14275">
    <path
       d="M 17.525171,17.797122 H 10.479169 L 9.0452461,22 H 6.0043402 L 12.617693,4.0017924 h 2.843123 L 22,22 h -3.053267 z m -6.180703,-2.509366 h 5.327766 L 14.063977,7.5989616 h -0.07417 z"
       style="font-style:normal;font-variant:normal;font-weight:500;font-stretch:normal;font-family:Roboto;-inkscape-font-specification:'Roboto Medium';fill:#98989d;fill-opacity:1;stroke-width:0.63290399"
       id="path15707" />
  </g>
  <g
     aria-label="A"
     style="font-style:normal;font-weight:normal;font-size:25.3161602px;line-height:1.25;font-family:sans-serif;letter-spacing:0px;word-spacing:0px;fill:#4b4b4f;fill-opacity:1;stroke:none;stroke-width:0.63290399"
     id="text14271">
    <path
       d="M 14.525172,15.797124 H 7.4791704 L 6.0452473,20.000002 H 3.0043413 L 9.6176937,2.0017943 H 12.460817 L 19.000001,20.000002 H 15.946734 Z M 8.3444689,13.287758 H 13.672235 L 11.063978,5.5989635 h -0.07417 z"
       style="font-style:normal;font-variant:normal;font-weight:500;font-stretch:normal;font-family:Roboto;-inkscape-font-specification:'Roboto Medium';fill:#4b4b4f;fill-opacity:1;stroke-width:0.63290399"
       id="path15704" />
  </g>
</svg>
